X: 16
T:Stop Your Tickling, Jock!
M:2/4
L:1/8
Q:240
K:G
B/2A/2|"G"GE DB,|D3 B/2A/2|GE DB,|D3 z|G>A BA|GF "Em"ED|"A"EA "A7"AB|"D"
A2z B/2A/2|
"G"GE DB,|DDzA|BB "Em"AG|"D"A3z|"G".d.d B/2A/2G|.d.d B/2A/2G|DB "D"A/2B/
2A|"G"G3||
